!!!OTL: Chan xian ge
!!!ARE: Asia, China,ÿHenan, Xinxiang
!! IV, 159
!!!SCT: C1662
!!!YEM: Copyright 1995, estate of Helmut Schaffrath.
**kern
*ICvox
*Ivox
*M2/4
*k[f#]
*G:
{8b
8g
4a
=1
8b
8g
4a
=2
8g
8b
8a
8a}
=3
{8b
8g
4a
=4
8b
8g
4a
=5
8g
8b
8a
8a}
=6
{8.g
16a
8b
16dd
16b
=7
2a
=8
8B
8d
8e
8g
=9
4d
4d}
=10
{8g
8e
8g
8g
=11
8g
8e
8g
8g
=12
8e
8g
8b
8e
=13
4d
4d}
=14
{8b
8a
4g
=15
4a
4a
=16
8b
8g
4a
=17
8b
8g
4a
=18
8g
8b
8a
8a}
=19
{8b
8a
4g
=20
4a
4a
=21
8b
8g
4a
=22
8b
8g
4a
=23
8g
8b
8a
8a}
=24
{8.g
16a
8b
16dd
16b
=25
2a
=26
8B
8d
8e
8g
=27
4d
4d}
=28
{8g
8e
8g
8g
=29
8g
8e
8g
8g
=30
8e
8g
8b
8e
=31
4d
4d}
=32
{8b
8a
4g
=33
4a
4a
=34
8b
8g
8a
8a
=35
8b
8g
8a
8a
=36
8g
8b
8a
8a
=37
8.g
16a
8b
16dd
16b
=38
2a}
=39
{8b
8g
4a
=40
8b
8g
4a
=41
8g
8b
8a
8a}
=42
{8b
8g
4a
=43
8b
8g
4a
=44
8g
8b
8a
8a}
=45
{8.g
16a
8b
8dd
=46
2a
=47
8B
8d
8e
8g
=48
4d
4d}
=49
{8g
8e
8g
8g
=50
8g
8e
8g
8g
=51
8e
8g
8b
8e
=52
4d
4d}
==
!!!AGN: Xiaodiao
!!!AMT: simple duple
!!!AIN: vox
!!!EED: Helmut Schaffrath
!!!EEV: 1.0
*-
